bots/gps/normal.svg

<svg width="2048" height="2048" fill="none" xmlns="http://www.w3.org/2000/svg"><path fill="url(#a)" d="M0 0h2048v2048H0z"/><g filter="url(#b)"><rect x="525" y="298" width="888.715" height="1335.2" rx="50" fill="#424242"/></g><g filter="url(#c)"><rect x="634.992" y="413.947" width="888.715" height="1335.2" rx="50" fill="#C4C4C4"/></g><path d="M1065.15 1251.77a43.2 43.2 0 0 1 27.16 0l111.89 37.03c46.61 15.42 35.51 84.27-13.58 84.27H966.839c-49.093 0-60.19-68.85-13.584-84.27l111.895-37.03ZM911.019 922.311l45.383-12.9c-12.09-42.537-49.062-71.275-90.641-74.914a70.176 70.176 0 0 0-1.333 3.582c-4.63 13.548-5.218 28.693-.54 43.673 21.725 2.782 40.764 18.157 47.131 40.559ZM966.199 1132.98l32.926-33.79-74.703-72.8a86.979 86.979 0 0 0-9.994-8.35l37.576 101.11 14.195 13.83ZM1159.57 1099.19l32.93 33.79 14.2-13.83 37.57-101.11c-3.44 2.47-6.8 5.24-9.99 8.35l-74.71 72.8ZM1202.3 909.411l45.38 12.9c6.37-22.402 25.41-37.777 47.13-40.559 4.68-14.98 4.09-30.125-.54-43.673a74.145 74.145 0 0 0-1.33-3.582c-41.58 3.639-78.55 32.377-90.64 74.914Z" fill="#424242"/><path d="M1109.02 1249.58c29.58 0 56.04-18.4 66.34-46.12l31.34-84.31-14.2 13.83-32.93-33.79 74.71-72.8c3.19-3.11 6.55-5.88 9.99-8.35l49.28-132.591c.46-1.23.88-2.463 1.26-3.697-21.72 2.782-40.76 18.157-47.13 40.559l-45.38-12.9c12.09-42.537 49.06-71.275 90.64-74.914-10.27-25.478-35.08-44.473-65.73-44.473H931.489c-30.651 0-55.46 18.995-65.728 44.473 41.579 3.639 78.551 32.377 90.641 74.914l-45.383 12.9c-6.367-22.402-25.406-37.777-47.131-40.559a73.293 73.293 0 0 0 1.263 3.697l49.277 132.591a86.979 86.979 0 0 1 9.994 8.35l74.703 72.8-32.926 33.79-14.195-13.83 31.335 84.31c10.304 27.72 36.761 46.12 66.341 46.12h59.34Z" fill="#424242"/><path d="M1306.46 994.624c-9.49 2.161-20.51 4.668-30.59 7.986-10.38 3.41-21.41 8.12-31.6 15.43l-37.57 101.11 60.5-58.96c5.5-5.36 13.05-9.36 23.39-12.76 7.81-2.57 15.62-4.35 24.47-6.36h.02c3.49-.8 7.14-1.63 11.02-2.57 22.05-5.3 41.99-17.78 56.41-35.57 17.46-21.55 23.99-50.936 23.99-78.674v-14.897c-2.75-40.067-36.06-71.28-76.22-71.28h-36.01c4.63 13.548 5.22 28.693.54 43.673 7.35-.941 15-.442 22.57 1.711 29.98 8.519 47.37 39.726 38.85 69.701-5.77 20.284-21.92 34.842-41.16 39.466-2.65.639-5.55 1.299-8.61 1.994ZM882.832 1002.61c-10.086-3.318-21.1-5.825-30.595-7.986a748.31 748.31 0 0 1-8.612-1.994c-19.236-4.624-35.39-19.182-41.155-39.466-8.52-29.975 8.873-61.182 38.848-69.701a56.228 56.228 0 0 1 22.57-1.711c-4.678-14.98-4.09-30.125.54-43.673h-36.01c-40.191 0-73.557 31.191-76.418 71.28v14.897c0 27.738 6.73 57.124 24.192 78.674 14.415 17.79 34.356 30.27 56.406 35.57 3.88.94 7.534 1.77 11.026 2.57h.016c8.846 2.01 16.656 3.79 24.465 6.36 10.342 3.4 17.893 7.4 23.39 12.76l60.509 58.96-37.576-101.11c-10.191-7.31-21.22-12.02-31.596-15.43Z" fill="#424242"/><defs><filter id="b" x="510" y="288" width="928.715" height="1375.2" filterUnits="userSpaceOnUse" color-interpolation-filters="sRGB"><feFlood flood-opacity="0" result="BackgroundImageFix"/><feColorMatrix in="SourceAlpha" values="0 0 0 0 0 0 0 0 0 0 0 0 0 0 0 0 0 0 127 0" result="hardAlpha"/><feOffset dx="5" dy="10"/><feGaussianBlur stdDeviation="10"/><feColorMatrix values="0 0 0 0 0.258824 0 0 0 0 0.258824 0 0 0 0 0.258824 0 0 0 1 0"/><feBlend in2="BackgroundImageFix" result="effect1_dropShadow_2997:5895"/><feBlend in="SourceGraphic" in2="effect1_dropShadow_2997:5895" result="shape"/></filter><filter id="c" x="619.992" y="403.947" width="928.715" height="1375.2" filterUnits="userSpaceOnUse" color-interpolation-filters="sRGB"><feFlood flood-opacity="0" result="BackgroundImageFix"/><feColorMatrix in="SourceAlpha" values="0 0 0 0 0 0 0 0 0 0 0 0 0 0 0 0 0 0 127 0" result="hardAlpha"/><feOffset dx="5" dy="10"/><feGaussianBlur stdDeviation="10"/><feColorMatrix values="0 0 0 0 0.258824 0 0 0 0 0.258824 0 0 0 0 0.258824 0 0 0 1 0"/><feBlend in2="BackgroundImageFix" result="effect1_dropShadow_2997:5895"/><feBlend in="SourceGraphic" in2="effect1_dropShadow_2997:5895" result="shape"/></filter><linearGradient id="a" x1="0" y1="0" x2="1024" y2="2048" gradientUnits="userSpaceOnUse"><stop stop-color="#78ECF2"/><stop offset="1" stop-color="#71AFE5"/></linearGradient></defs></svg>

<svg width="2048" height="2048" viewBox="0 0 2048 2048" fill="none" xmlns="http://www.w3.org/2000/svg">
<rect width="2048" height="2048" fill="url(#paint0_linear)"/>
<g filter="url(#filter0_d)">
<rect x="525" y="298" width="888.715" height="1335.2" rx="50" fill="#424242"/>
</g>
<g filter="url(#filter1_d)">
<rect x="634.992" y="413.947" width="888.715" height="1335.2" rx="50" fill="#C4C4C4"/>
</g>
<path d="M1065.15 1251.77C1073.97 1248.85 1083.49 1248.85 1092.31 1251.77L1204.2 1288.8C1250.81 1304.22 1239.71 1373.07 1190.62 1373.07H966.839C917.746 1373.07 906.649 1304.22 953.255 1288.8L1065.15 1251.77Z" fill="#424242"/>
<path d="M911.019 922.311L956.402 909.411C944.312 866.874 907.34 838.136 865.761 834.497C865.285 835.677 864.84 836.872 864.428 838.079C859.798 851.627 859.21 866.772 863.888 881.752C885.613 884.534 904.652 899.909 911.019 922.311Z" fill="#424242"/>
<path d="M966.199 1132.98L999.125 1099.19L924.422 1026.39C921.225 1023.28 917.874 1020.51 914.428 1018.04L952.004 1119.15L966.199 1132.98Z" fill="#424242"/>
<path d="M1159.57 1099.19L1192.5 1132.98L1206.7 1119.15L1244.27 1018.04C1240.83 1020.51 1237.47 1023.28 1234.28 1026.39L1159.57 1099.19Z" fill="#424242"/>
<path d="M1202.3 909.411L1247.68 922.311C1254.05 899.909 1273.09 884.534 1294.81 881.752C1299.49 866.772 1298.9 851.627 1294.27 838.079C1293.86 836.872 1293.41 835.677 1292.94 834.497C1251.36 838.136 1214.39 866.874 1202.3 909.411Z" fill="#424242"/>
<path d="M1109.02 1249.58C1138.6 1249.58 1165.06 1231.18 1175.36 1203.46L1206.7 1119.15L1192.5 1132.98L1159.57 1099.19L1234.28 1026.39C1237.47 1023.28 1240.83 1020.51 1244.27 1018.04L1293.55 885.449C1294.01 884.219 1294.43 882.986 1294.81 881.752C1273.09 884.534 1254.05 899.909 1247.68 922.311L1202.3 909.411C1214.39 866.874 1251.36 838.136 1292.94 834.497C1282.67 809.019 1257.86 790.024 1227.21 790.024H931.489C900.838 790.024 876.029 809.019 865.761 834.497C907.34 838.136 944.312 866.874 956.402 909.411L911.019 922.311C904.652 899.909 885.613 884.534 863.888 881.752C864.273 882.986 864.694 884.219 865.151 885.449L914.428 1018.04C917.874 1020.51 921.225 1023.28 924.422 1026.39L999.125 1099.19L966.199 1132.98L952.004 1119.15L983.339 1203.46C993.643 1231.18 1020.1 1249.58 1049.68 1249.58H1109.02Z" fill="#424242"/>
<path d="M1306.46 994.624C1296.97 996.785 1285.95 999.292 1275.87 1002.61C1265.49 1006.02 1254.46 1010.73 1244.27 1018.04L1206.7 1119.15L1267.2 1060.19C1272.7 1054.83 1280.25 1050.83 1290.59 1047.43C1298.4 1044.86 1306.21 1043.08 1315.06 1041.07L1315.06 1041.07L1315.08 1041.07C1318.57 1040.27 1322.22 1039.44 1326.1 1038.5C1348.15 1033.2 1368.09 1020.72 1382.51 1002.93C1399.97 981.38 1406.5 951.994 1406.5 924.256V909.359C1403.75 869.292 1370.44 838.079 1330.28 838.079H1294.27C1298.9 851.627 1299.49 866.772 1294.81 881.752C1302.16 880.811 1309.81 881.31 1317.38 883.463C1347.36 891.982 1364.75 923.189 1356.23 953.164C1350.46 973.448 1334.31 988.006 1315.07 992.63C1312.42 993.269 1309.52 993.929 1306.46 994.624Z" fill="#424242"/>
<path d="M882.832 1002.61C872.746 999.292 861.732 996.785 852.237 994.624C849.182 993.929 846.284 993.269 843.625 992.63C824.389 988.006 808.235 973.448 802.47 953.164C793.95 923.189 811.343 891.982 841.318 883.463C848.891 881.31 856.543 880.811 863.888 881.752C859.21 866.772 859.798 851.627 864.428 838.079H828.418C788.227 838.079 754.861 869.27 752 909.359V924.256C752 951.994 758.73 981.38 776.192 1002.93C790.607 1020.72 810.548 1033.2 832.598 1038.5C836.478 1039.44 840.132 1040.27 843.624 1041.07L843.637 1041.07L843.64 1041.07C852.486 1043.08 860.296 1044.86 868.105 1047.43C878.447 1050.83 885.998 1054.83 891.495 1060.19L952.004 1119.15L914.428 1018.04C904.237 1010.73 893.208 1006.02 882.832 1002.61Z" fill="#424242"/>
<defs>
<filter id="filter0_d" x="510" y="288" width="928.715" height="1375.2" filterUnits="userSpaceOnUse" color-interpolation-filters="sRGB">
<feFlood flood-opacity="0" result="BackgroundImageFix"/>
<feColorMatrix in="SourceAlpha" type="matrix" values="0 0 0 0 0 0 0 0 0 0 0 0 0 0 0 0 0 0 127 0" result="hardAlpha"/>
<feOffset dx="5" dy="10"/>
<feGaussianBlur stdDeviation="10"/>
<feColorMatrix type="matrix" values="0 0 0 0 0.258824 0 0 0 0 0.258824 0 0 0 0 0.258824 0 0 0 1 0"/>
<feBlend mode="normal" in2="BackgroundImageFix" result="effect1_dropShadow_2997:5895"/>
<feBlend mode="normal" in="SourceGraphic" in2="effect1_dropShadow_2997:5895" result="shape"/>
</filter>
<filter id="filter1_d" x="619.992" y="403.947" width="928.715" height="1375.2" filterUnits="userSpaceOnUse" color-interpolation-filters="sRGB">
<feFlood flood-opacity="0" result="BackgroundImageFix"/>
<feColorMatrix in="SourceAlpha" type="matrix" values="0 0 0 0 0 0 0 0 0 0 0 0 0 0 0 0 0 0 127 0" result="hardAlpha"/>
<feOffset dx="5" dy="10"/>
<feGaussianBlur stdDeviation="10"/>
<feColorMatrix type="matrix" values="0 0 0 0 0.258824 0 0 0 0 0.258824 0 0 0 0 0.258824 0 0 0 1 0"/>
<feBlend mode="normal" in2="BackgroundImageFix" result="effect1_dropShadow_2997:5895"/>
<feBlend mode="normal" in="SourceGraphic" in2="effect1_dropShadow_2997:5895" result="shape"/>
</filter>
<linearGradient id="paint0_linear" x1="0" y1="0" x2="1024" y2="2048" gradientUnits="userSpaceOnUse">
<stop stop-color="#78ECF2"/>
<stop offset="1" stop-color="#71AFE5"/>
</linearGradient>
</defs>
</svg>
